X: 1
T: the Leitrim Fancy jig
T: the Leitrim Favourite
T: the Daleystown Hunt
T: Rogha L\'iadroma
C: 
N: 
R: jig
Z: 2020 John Chambers <jc:trillian.mit.edu>
S: https://www.facebook.com/groups/Fiddletuneoftheday/
S: https://www.facebook.com/groups/Fiddletuneoftheday/photos/
M: 6/8
L: 1/8
K: Em	% and G
|:"Em"GBG "D"FAF | "Em"E2B BAB | "Em"GBG "D"FAF | "D"D2A AFD |\
| "Em"GBG "D"FAF | "Em"E2B BAB | "Em"GBG dBG | "D"ABG "Bm"FED :|
|:"G"GAB dBd | edB "(C)"dBA | "G"GAB "Em"dBG | "A(m)"ABG "D"FED |\
| "G"GAB dBd | edB "(D)"def | "C"gfe  "G"dBG | "A(m)"ABG "D"FED :|
